casedrop/img/header/icons/google-plus.svg

<svg width="17" height="11" viewBox="0 0 17 11" fill="none" xmlns="http://www.w3.org/2000/svg">
<path d="M6.17488 1.5797C6.60551 1.56766 6.94486 1.20883 6.9328 0.77822C6.92074 0.347598 6.56194 0.00827647 6.13131 0.0202989L6.17488 1.5797ZM1.72165 5.48L2.50138 5.5008C2.50174 5.48697 2.50174 5.47303 2.50138 5.4592L1.72165 5.48ZM6.15309 10.16L6.13131 10.9397C6.14583 10.9401 6.16036 10.9401 6.17488 10.9397L6.15309 10.16ZM10.5846 5.48L11.3642 5.4592C11.353 5.03664 11.0072 4.7 10.5846 4.7V5.48ZM6.15309 4.7C5.72231 4.7 5.37309 5.04923 5.37309 5.48C5.37309 5.91077 5.72231 6.26 6.15309 6.26V4.7ZM16.1007 3.58616C16.5315 3.58616 16.8807 3.23694 16.8807 2.80616C16.8807 2.37538 16.5315 2.02616 16.1007 2.02616V3.58616ZM14.2017 2.02616C13.7709 2.02616 13.4217 2.37538 13.4217 2.80616C13.4217 3.23694 13.7709 3.58616 14.2017 3.58616V2.02616ZM14.2017 3.58616C14.6324 3.58616 14.9817 3.23694 14.9817 2.80616C14.9817 2.37538 14.6324 2.02616 14.2017 2.02616V3.58616ZM12.3026 2.02616C11.8719 2.02616 11.5226 2.37538 11.5226 2.80616C11.5226 3.23694 11.8719 3.58616 12.3026 3.58616V2.02616ZM13.4217 2.80616C13.4217 3.23694 13.7709 3.58616 14.2017 3.58616C14.6324 3.58616 14.9817 3.23694 14.9817 2.80616H13.4217ZM14.9817 0.799997C14.9817 0.369219 14.6324 0.0199974 14.2017 0.0199974C13.7709 0.0199974 13.4217 0.369219 13.4217 0.799997H14.9817ZM14.9817 2.80616C14.9817 2.37538 14.6324 2.02616 14.2017 2.02616C13.7709 2.02616 13.4217 2.37538 13.4217 2.80616H14.9817ZM13.4217 4.81128C13.4217 5.24205 13.7709 5.59128 14.2017 5.59128C14.6324 5.59128 14.9817 5.24205 14.9817 4.81128H13.4217ZM6.13131 0.0202989C3.18577 0.102584 0.863505 2.55511 0.941932 5.5008L2.50138 5.4592C2.44587 3.37405 4.08976 1.63794 6.17488 1.5797L6.13131 0.0202989ZM0.941932 5.4592C0.863505 8.40489 3.18577 10.8574 6.13131 10.9397L6.17488 9.38031C4.08976 9.32207 2.44587 7.58589 2.50138 5.5008L0.941932 5.4592ZM6.17488 10.9397C9.12044 10.8574 11.4427 8.40489 11.3642 5.4592L9.80476 5.5008C9.8603 7.58589 8.21647 9.32207 6.13131 9.38031L6.17488 10.9397ZM10.5846 4.7H6.15309V6.26H10.5846V4.7ZM16.1007 2.02616H14.2017V3.58616H16.1007V2.02616ZM14.2017 2.02616H12.3026V3.58616H14.2017V2.02616ZM14.9817 2.80616V0.799997H13.4217V2.80616H14.9817ZM13.4217 2.80616V4.81128H14.9817V2.80616H13.4217Z" fill="#67718E"/>
</svg>

<svg width="17" height="11" fill="none" xmlns="http://www.w3.org/2000/svg"><path d="M6.175 1.58A.78.78 0 106.13.02l.044 1.56zm-4.453 3.9l.78.02v-.04l-.78.02zm4.431 4.68l-.022.78h.044l-.022-.78zm4.432-4.68l.78-.02a.78.78 0 00-.78-.76v.78zM6.153 4.7a.78.78 0 000 1.56V4.7zm9.948-1.114a.78.78 0 100-1.56v1.56zm-1.9-1.56a.78.78 0 100 1.56v-1.56zm0 1.56a.78.78 0 000-1.56v1.56zm-1.898-1.56a.78.78 0 000 1.56v-1.56zm1.119.78a.78.78 0 101.56 0h-1.56zM14.982.8a.78.78 0 00-1.56 0h1.56zm0 2.006a.78.78 0 00-1.56 0h1.56zm-1.56 2.005a.78.78 0 101.56 0h-1.56zM6.132.021A5.34 5.34 0 00.941 5.5l1.56-.042a3.78 3.78 0 013.673-3.88L6.13.02zM.941 5.458a5.34 5.34 0 005.19 5.48l.043-1.559A3.78 3.78 0 012.5 5.5L.94 5.46zm5.233 5.48a5.34 5.34 0 005.19-5.48l-1.56.042A3.78 3.78 0 016.13 9.38l.044 1.559zm4.41-6.239H6.153v1.56h4.432V4.7zM16.1 2.026h-1.9v1.56h1.9v-1.56zm-1.9 0h-1.898v1.56h1.899v-1.56zm.78.78V.8h-1.56v2.006h1.56zm-1.56 0v2.005h1.56V2.806h-1.56z" fill="#67718E"/></svg>
